svg/github.svg

<svg width="35" height="35" viewBox="0 0 35 35" fill="none" xmlns="http://www.w3.org/2000/svg">
<path d="M17.5 0C7.83125 0 0 7.83125 0 17.5C0 25.2438 5.00937 31.7844 11.9656 34.1031C12.8406 34.2563 13.1687 33.7313 13.1687 33.2719C13.1687 32.8563 13.1469 31.4781 13.1469 30.0125C8.75 30.8219 7.6125 28.9406 7.2625 27.9563C7.06562 27.4531 6.2125 25.9 5.46875 25.4844C4.85625 25.1563 3.98125 24.3469 5.44688 24.325C6.825 24.3031 7.80938 25.5938 8.1375 26.1188C9.7125 28.7656 12.2281 28.0219 13.2344 27.5625C13.3875 26.425 13.8469 25.6594 14.35 25.2219C10.4563 24.7844 6.3875 23.275 6.3875 16.5813C6.3875 14.6781 7.06563 13.1031 8.18125 11.8781C8.00625 11.4406 7.39375 9.64688 8.35625 7.24063C8.35625 7.24063 9.82187 6.78125 13.1687 9.03438C14.5688 8.64063 16.0563 8.44375 17.5438 8.44375C19.0313 8.44375 20.5188 8.64063 21.9188 9.03438C25.2656 6.75938 26.7313 7.24063 26.7313 7.24063C27.6938 9.64688 27.0813 11.4406 26.9062 11.8781C28.0219 13.1031 28.7 14.6563 28.7 16.5813C28.7 23.2969 24.6094 24.7844 20.7156 25.2219C21.35 25.7688 21.8969 26.8188 21.8969 28.4594C21.8969 30.8 21.875 32.6813 21.875 33.2719C21.875 33.7313 22.2031 34.2781 23.0781 34.1031C26.5524 32.9306 29.5714 30.6979 31.7101 27.7195C33.8487 24.741 34.9994 21.1668 35 17.5C35 7.83125 27.1688 0 17.5 0Z" fill="#5C49C7"/>
</svg>

<svg width="35" height="35" fill="none" xmlns="http://www.w3.org/2000/svg"><path d="M17.5 0C7.8313 0 0 7.8312 0 17.5c0 7.7438 5.0094 14.2844 11.9656 16.6031.875.1532 1.2031-.3718 1.2031-.8312 0-.4156-.0218-1.7938-.0218-3.2594-4.3969.8094-5.5344-1.0719-5.8844-2.0562-.1969-.5032-1.05-2.0563-1.7938-2.4719-.6124-.3281-1.4874-1.1375-.0218-1.1594 1.3781-.0219 2.3625 1.2688 2.6906 1.7938 1.575 2.6468 4.0906 1.9031 5.0969 1.4437.1531-1.1375.6125-1.9031 1.1156-2.3406-3.8937-.4375-7.9625-1.9469-7.9625-8.6406 0-1.9032.6781-3.4782 1.7938-4.7032-.175-.4375-.7876-2.2312.175-4.6375 0 0 1.4656-.4593 4.8124 1.7938 1.4001-.3938 2.8876-.5907 4.3751-.5907 1.4875 0 2.975.197 4.375.5907 3.3468-2.275 4.8125-1.7938 4.8125-1.7938.9625 2.4063.35 4.2.1749 4.6375 1.1157 1.225 1.7938 2.7782 1.7938 4.7032 0 6.7156-4.0906 8.2031-7.9844 8.6406.6344.5469 1.1813 1.5969 1.1813 3.2375 0 2.3406-.0219 4.2219-.0219 4.8125 0 .4594.3281 1.0062 1.2031.8312A17.5264 17.5264 0 0 0 35 17.5C35 7.8313 27.1688 0 17.5 0Z" fill="#5C49C7"/></svg>
